assets/images/Header/Links/main.svg

<svg width="32" height="32" viewBox="0 0 32 32" fill="none" xmlns="http://www.w3.org/2000/svg">
<path d="M16.612 2.214C16.4346 2.07566 16.216 2.00053 15.991 2.00053C15.766 2.00053 15.5474 2.07566 15.37 2.214L1 13.419L2.243 14.991L4 13.621V26C4.00106 26.5301 4.21211 27.0382 4.58695 27.413C4.9618 27.7879 5.46989 27.9989 6 28H26C26.5301 27.9989 27.0382 27.7879 27.413 27.413C27.7879 27.0382 27.9989 26.5301 28 26V13.63L29.757 15L31 13.428L16.612 2.214ZM18 26H14V18H18V26ZM20 26V18C19.9995 17.4697 19.7886 16.9613 19.4136 16.5864C19.0387 16.2114 18.5303 16.0005 18 16H14C13.4697 16.0005 12.9613 16.2114 12.5864 16.5864C12.2114 16.9613 12.0005 17.4697 12 18V26H6V12.062L16 4.272L26 12.072V26H20Z" fill="#565656"/>
</svg>

<svg xmlns="http://www.w3.org/2000/svg" width="32" height="32" fill="none" viewBox="0 0 32 32"><path fill="#565656" d="M16.612 2.214a1.01 1.01 0 0 0-1.242 0L1 13.419l1.243 1.572L4 13.621V26a2.004 2.004 0 0 0 2 2h20a2.004 2.004 0 0 0 2-2V13.63L29.757 15 31 13.428 16.612 2.214zM18 26h-4v-8h4v8zm2 0v-8a2.002 2.002 0 0 0-2-2h-4a2.002 2.002 0 0 0-2 2v8H6V12.062l10-7.79 10 7.8V26h-6z"/></svg>
